X: 41452
T: Two Name, The
R: jig
M: 6/8
K: Dmajor
|:e^e|f3 fga|Ade fed|Bef gfe|Bed cBA|
f3 fga|Ade fed|Bef gfe|aec d:|
AG|F2 A /B/c/de|f3 fga|G2 A B2 d|g3 gfg|
A2 c e2 f|g3 gfg|efe aba|f3 fef|
F2 A /B/c/de|f3 fga|G2 A B2 d|g3 gfg|
A2 c e2 f|g3 gfg|efe afc d3 d||

